assets/ibragim/white-Logo.svg

<?xml version="1.0" encoding="UTF-8"?>
<svg width="135px" height="38px" viewBox="0 0 135 38" version="1.1" xmlns="http://www.w3.org/2000/svg" xmlns:xlink="http://www.w3.org/1999/xlink">
    <!-- Generator: Sketch 49.3 (51167) - http://www.bohemiancoding.com/sketch -->
    <title>Logo</title>
    <desc>Created with Sketch.</desc>
    <defs></defs>
    <g id="Templates" stroke="none" stroke-width="1" fill="none" fill-rule="evenodd">
        <g id="CINDEX-DT" transform="translate(-48.000000, -52.000000)" fill="#FFFFFF">
            <g id="TopMenu" transform="translate(0.000000, -400.000000)">
                <g id="Logo" transform="translate(48.000000, 450.000000)">
                    <g id="INDEX" transform="translate(42.000000, 11.000000)">
                        <polygon id="Fill-12" points="0 19 4 19 4 0 0 0"></polygon>
                        <polygon id="Fill-14" points="24.5871748 19 16.8261639 7.33813704 16.8261639 19 13 19 13 0 16.4128252 0 24.1746919 11.6344819 24.1746919 0 28 0 28 19"></polygon>
                        <path d="M45.4191056,4.48303419 C44.7693961,3.70889558 43.9033972,3.30896546 42.603978,3.30896546 L39.7619194,3.30896546 L39.7619194,15.6910345 L42.603978,15.6910345 C43.9033972,15.6910345 44.7693961,15.2911044 45.4191056,14.5169658 C46.1226772,13.6631731 46.2312426,12.302415 46.2312426,9.419931 C46.2312426,6.53744705 46.1226772,5.33682694 45.4191056,4.48303419 M48.0448749,17.1853793 C46.7723867,18.4399319 44.959596,19 42.9557638,19 L36,19 L36,0 L42.9557638,0 C44.959596,0 46.7723867,0.560068125 48.0448749,1.81462073 C50.210293,3.94951745 49.9940036,6.56482816 49.9940036,9.419931 C49.9940036,12.2750338 50.210293,15.0504826 48.0448749,17.1853793" id="Fill-15"></path>
                        <polygon id="Fill-16" points="58 19 58 0 71 0 71 3.30896546 61.8532883 3.30896546 61.8532883 7.76544827 69.6417396 7.76544827 69.6417396 11.0744137 61.8532883 11.0744137 61.8532883 15.6910345 71 15.6910345 71 19"></polygon>
                        <polygon id="Fill-17" points="88.7103456 19 84.986996 12.3820691 81.2896544 19 77 19 82.962561 9.259793 77.3775366 0 81.640344 0 84.986996 6.13751692 88.359656 0 92.5956164 0 87.010592 9.259793 93 19"></polygon>
                    </g>
                    <g id="C" transform="translate(0.000000, 2.000000)">
                        <path d="M13.5289074,34.4652516 C13.4842029,34.4652516 13.441982,34.4486214 13.4088675,34.4178556 L3.45383684,25.0866521 C3.41989453,25.0542232 3.40002586,25.0093217 3.40002586,24.9619256 L3.40002586,13.0779869 C3.40002586,13.0314223 3.41906667,12.9856893 3.45383684,12.9532604 L13.4130068,3.58297593 C13.4452934,3.55221007 13.4883422,3.53474836 13.5330467,3.53474836 L21.8894774,3.53474836 C21.9350098,3.53474836 21.9788864,3.55221007 22.011173,3.58380744 L29.9412552,11.1779869 C29.9992055,11.233698 30.0869588,11.2428446 30.1556713,11.2004376 L32.8958918,9.49916849 C32.9910958,9.43929978 33.0051695,9.30708972 32.9240391,9.22892779 L23.6528217,0.350897155 C23.4177092,0.125557987 23.1097448,0 22.7901904,0 L12.6447516,0 C12.3285087,0 12.0238558,0.122231947 11.789571,0.342582057 L0.419725618,11.0416193 C0.152326457,11.2927352 0,11.649453 0,12.0236324 L0,26.0187746 C0,26.3946171 0.153154318,26.7521663 0.42138134,27.0032823 L11.789571,37.659081 C12.0246836,37.8785996 12.3285087,38 12.6430959,38 L22.7910182,38 C23.1105727,38 23.4177092,37.8752735 23.6528217,37.6515974 L32.9463913,28.7852079 C33.0283496,28.7078775 33.0142759,28.5748359 32.918244,28.5149672 L30.1763678,26.8128665 C30.1084832,26.771291 30.0199021,26.7804376 29.9619518,26.8353173 L22.0144845,34.4170241 C21.9821979,34.4477899 21.9391491,34.4652516 21.8936167,34.4652516 L13.5289074,34.4652516 Z" id="Fill-1"></path>
                        <path d="M21.2953411,5 L17.1738697,5 C17.0175039,5 16.940967,5.19097084 17.0537149,5.3003374 L25.9772603,13.9512322 C26.0348687,14.0067567 26.1229273,14.0160108 26.1904115,13.9731055 L28.918582,12.2493203 C29.0140474,12.188748 29.028038,12.0549843 28.9473862,11.9759039 L22.1537067,5.35502067 C21.9199811,5.12703346 21.6130105,5 21.2953411,5" id="Fill-4"></path>
                        <path d="M19.744714,28.3650957 C17.5340247,26.2382529 14.6489979,23.4426481 12.8485981,21.6962096 L12.3895612,21.2677457 C12.3554381,21.2359774 12.3359392,21.1911761 12.3359392,21.1447456 L12.3359392,16.9000204 C12.3359392,16.8544044 12.3546257,16.8104176 12.3879363,16.7786494 L16.9498697,12.3832287 C17.0197408,12.316434 17.0189284,12.206467 16.9490573,12.1404868 L14.74568,10.0470414 C14.6790587,9.98431952 14.5734396,9.98431952 14.5068183,10.0470414 L9.27542216,15.0330255 C9.09993193,15.1975687 9,15.4313503 9,15.6773505 L9,22.3723028 C9,22.5580248 9.05768429,22.7372303 9.16086604,22.8846675 L9.15274149,22.9091046 L16.0293585,29.5372622 L19.1963071,32.5894566 L19.5773484,32.9527549 C19.6090341,32.982894 19.6520942,33 19.6959668,33 L21.3777481,33 C21.6913556,33 21.9927763,32.8794436 22.2235135,32.6586951 L28.947389,26.2561735 C29.027822,26.1804184 29.0140103,26.0500872 28.9197655,25.9914382 L26.2289154,24.324013 C26.1614816,24.2832845 26.0753614,24.2914302 26.0184896,24.3460064 L20.886213,29.2326129 C20.8195917,29.2961494 20.7139726,29.2961494 20.6473513,29.2326129 C20.364617,28.9605465 20.0615714,28.6697449 19.744714,28.3650957" id="Fill-6"></path>
                        <path d="M20.5558028,26.9529037 L24.9465427,22.9324113 C25.0283785,22.8567352 25.0141825,22.7287299 24.9181507,22.6707653 L22.1574458,21.0260184 C22.0881359,20.984155 21.9987846,20.9938158 21.9403305,21.0477551 L18.0531311,24.6471988 C17.9821511,24.7132141 17.9821511,24.8218978 18.0539661,24.887108 L20.3111305,26.9529037 C20.3796053,27.0156988 20.4873279,27.0156988 20.5558028,26.9529037" id="Fill-8"></path>
                        <path d="M15.740432,5.13860982 C15.649122,5.04973647 15.5276401,5 15.4013942,5 L14.2310388,5 C14.1841928,5 14.1381409,5.00244606 14.0928829,5.00896887 C13.838803,5.03913689 13.6006032,5.15247081 13.4092493,5.33510964 L5.40176377,13.0393698 C5.14609592,13.2856061 5,13.6362074 5,14.0023005 L5,24.0278676 C5,24.3964066 5.14688992,24.7470079 5.40414577,24.9940596 L13.4108373,32.6665211 C13.6347452,32.8809586 13.926937,33 14.2286568,33 L17.9834807,33 C18.1343406,33 18.2081826,32.8149151 18.1001986,32.7089194 L8.24507618,23.081244 L8.26095617,23.0624909 L8.26095617,15.1755919 C8.26095617,15.0410588 8.31494814,14.9122332 8.41181608,14.8192831 L14.6129526,8.85416849 C14.6780606,8.79138639 14.7804865,8.79138639 14.8455945,8.85498384 L22.1599184,16.000728 C22.2154983,16.0545412 22.3004563,16.0635101 22.3655643,16.0219271 L24.9214488,14.4001922 C25.0135528,14.3414869 25.0270508,14.2110305 24.9492388,14.1352028 L19.1458961,8.46606098 L15.740432,5.13860982 Z" id="Fill-10"></path>
                    </g>
                </g>
            </g>
        </g>
    </g>
</svg>

<?xml version="1.0" encoding="utf-8"?>
<!-- Generator: Adobe Illustrator 22.0.0, SVG Export Plug-In . SVG Version: 6.00 Build 0)  -->
<svg version="1.1" id="Слой_1" xmlns="http://www.w3.org/2000/svg" xmlns:xlink="http://www.w3.org/1999/xlink" x="0px" y="0px"
	 viewBox="0 0 135 38" style="enable-background:new 0 0 135 38;" xml:space="preserve">
<style type="text/css">
	.st0{fill:#FFFFFF;}
</style>
<title>Logo</title>
<desc>Created with Sketch.</desc>
<g id="Templates">
	<g id="CINDEX-DT" transform="translate(-48.000000, -52.000000)">
		<g id="TopMenu" transform="translate(0.000000, -400.000000)">
			<g id="Logo" transform="translate(48.000000, 450.000000)">
				<g id="INDEX" transform="translate(42.000000, 11.000000)">
					<polygon id="Fill-12" class="st0" points="0,19 4,19 4,0 0,0 					"/>
					<polygon id="Fill-14" class="st0" points="24.6,19 16.8,7.3 16.8,19 13,19 13,0 16.4,0 24.2,11.6 24.2,0 28,0 28,19 					"/>
					<path id="Fill-15" class="st0" d="M45.4,4.5c-0.6-0.8-1.5-1.2-2.8-1.2h-2.8v12.4h2.8c1.3,0,2.2-0.4,2.8-1.2
						c0.7-0.9,0.8-2.2,0.8-5.1S46.1,5.3,45.4,4.5 M48,17.2C46.8,18.4,45,19,43,19h-7V0h7c2,0,3.8,0.6,5.1,1.8
						C50.2,3.9,50,6.6,50,9.4S50.2,15.1,48,17.2"/>
					<polygon id="Fill-17" class="st0" points="65.5,19 61.8,12.4 58.1,19 53.8,19 59.8,9.3 54.2,0 58.5,0 61.8,6.1 65.2,0 69.4,0 
						63.8,9.3 69.8,19 					"/>
				</g>
				<g id="C" transform="translate(0.000000, 2.000000)">
					<path id="Fill-1" class="st0" d="M13.5,34.5c0,0-0.1,0-0.1,0l-10-9.3c0,0-0.1-0.1-0.1-0.1V13.1c0,0,0-0.1,0.1-0.1l10-9.4
						c0,0,0.1,0,0.1,0h8.4c0,0,0.1,0,0.1,0l7.9,7.6c0.1,0.1,0.1,0.1,0.2,0l2.7-1.7c0.1-0.1,0.1-0.2,0-0.3l-9.3-8.9
						C23.4,0.1,23.1,0,22.8,0H12.6c-0.3,0-0.6,0.1-0.9,0.3L0.4,11C0.2,11.3,0,11.6,0,12v14c0,0.4,0.2,0.7,0.4,1l11.4,10.7
						c0.2,0.2,0.5,0.3,0.9,0.3h10.1c0.3,0,0.6-0.1,0.9-0.3l9.3-8.9c0.1-0.1,0.1-0.2,0-0.3l-2.7-1.7c-0.1,0-0.2,0-0.2,0L22,34.4
						c0,0-0.1,0-0.1,0H13.5z"/>
					<path id="Fill-4" class="st0" d="M21.3,5h-4.1c-0.2,0-0.2,0.2-0.1,0.3L26,14c0.1,0.1,0.1,0.1,0.2,0l2.7-1.7
						c0.1-0.1,0.1-0.2,0-0.3l-6.8-6.6C21.9,5.1,21.6,5,21.3,5"/>
					<path id="Fill-6" class="st0" d="M19.7,28.4c-2.2-2.1-5.1-4.9-6.9-6.7l-0.5-0.4c0,0-0.1-0.1-0.1-0.1v-4.2c0,0,0-0.1,0.1-0.1
						l4.6-4.4c0.1-0.1,0.1-0.2,0-0.2L14.7,10c-0.1-0.1-0.2-0.1-0.2,0l-5.2,5C9.1,15.2,9,15.4,9,15.7v6.7c0,0.2,0.1,0.4,0.2,0.5l0,0
						l6.9,6.6l3.2,3.1l0.4,0.4c0,0,0.1,0,0.1,0h1.7c0.3,0,0.6-0.1,0.8-0.3l6.7-6.4c0.1-0.1,0.1-0.2,0-0.3l-2.7-1.7
						c-0.1,0-0.2,0-0.2,0l-5.1,4.9c-0.1,0.1-0.2,0.1-0.2,0C20.4,29,20.1,28.7,19.7,28.4"/>
					<path id="Fill-8" class="st0" d="M20.6,27l4.4-4c0.1-0.1,0.1-0.2,0-0.3L22.2,21c-0.1,0-0.2,0-0.2,0l-3.9,3.6
						c-0.1,0.1-0.1,0.2,0,0.2l2.3,2.1C20.4,27,20.5,27,20.6,27"/>
					<path id="Fill-10" class="st0" d="M15.7,5.1C15.6,5,15.5,5,15.4,5h-1.2c0,0-0.1,0-0.1,0c-0.3,0-0.5,0.1-0.7,0.3l-8,7.7
						C5.1,13.3,5,13.6,5,14v10c0,0.4,0.1,0.7,0.4,1l8,7.7c0.2,0.2,0.5,0.3,0.8,0.3H18c0.2,0,0.2-0.2,0.1-0.3l-9.9-9.6l0,0v-7.9
						c0-0.1,0.1-0.3,0.2-0.4l6.2-6c0.1-0.1,0.2-0.1,0.2,0l7.3,7.1c0.1,0.1,0.1,0.1,0.2,0l2.6-1.6c0.1-0.1,0.1-0.2,0-0.3l-5.8-5.7
						L15.7,5.1z"/>
				</g>
			</g>
		</g>
	</g>
</g>
</svg>
